static/img/in-field/accordion-line-above-expanded-dark.svg

<svg width="179" height="57" viewBox="0 0 179 57" fill="none" xmlns="http://www.w3.org/2000/svg">
<g clip-path="url(#clip0_7209_84221)">
<path d="M31.4932 37.625H29.667V23.542H24.6934V21.9199H36.4668V23.542H31.4932V37.625ZM40.6055 37.625H38.8223V25.8516H40.6055V37.625ZM38.6719 22.6611C38.6719 22.2529 38.7721 21.9557 38.9727 21.7695C39.1732 21.5762 39.4238 21.4795 39.7246 21.4795C40.0111 21.4795 40.2581 21.5762 40.4658 21.7695C40.6735 21.9629 40.7773 22.2601 40.7773 22.6611C40.7773 23.0622 40.6735 23.363 40.4658 23.5635C40.2581 23.7568 40.0111 23.8535 39.7246 23.8535C39.4238 23.8535 39.1732 23.7568 38.9727 23.5635C38.7721 23.363 38.6719 23.0622 38.6719 22.6611ZM48.4395 36.3682C48.7546 36.3682 49.0589 36.3467 49.3525 36.3037C49.6462 36.2536 49.8789 36.2035 50.0508 36.1533V37.5176C49.8574 37.6107 49.571 37.6859 49.1914 37.7432C48.819 37.8076 48.4824 37.8398 48.1816 37.8398C45.9043 37.8398 44.7656 36.6403 44.7656 34.2412V27.2373H43.0791V26.3779L44.7656 25.6367L45.5176 23.123H46.5488V25.8516H49.9648V27.2373H46.5488V34.166C46.5488 34.875 46.7171 35.4193 47.0537 35.7988C47.3903 36.1784 47.8522 36.3682 48.4395 36.3682ZM54.4473 37.625H52.6641V20.9102H54.4473V37.625ZM63.4521 37.8398C61.7119 37.8398 60.3369 37.3099 59.3271 36.25C58.3245 35.1901 57.8232 33.7184 57.8232 31.835C57.8232 29.9372 58.2887 28.4297 59.2197 27.3125C60.1579 26.1953 61.4147 25.6367 62.9902 25.6367C64.4655 25.6367 65.6328 26.1237 66.4922 27.0977C67.3516 28.0645 67.7812 29.3428 67.7812 30.9326V32.0605H59.6709C59.7067 33.4427 60.054 34.4919 60.7129 35.208C61.3789 35.9242 62.3135 36.2822 63.5166 36.2822C64.7842 36.2822 66.0374 36.0173 67.2764 35.4873V37.0771C66.6462 37.3493 66.0482 37.5426 65.4824 37.6572C64.9238 37.779 64.2471 37.8398 63.4521 37.8398ZM62.9688 27.1299C62.0234 27.1299 61.2679 27.4378 60.7021 28.0537C60.1436 28.6696 59.8141 29.5218 59.7139 30.6104H65.8691C65.8691 29.486 65.6185 28.6266 65.1172 28.0322C64.6159 27.4307 63.8997 27.1299 62.9688 27.1299Z" fill="#fff"/>
<path d="M136.626 31.9273L139.087 34.4659L146.143 27.6752L152.985 34.6827L155.524 32.222L146.221 22.6758L136.626 31.9273Z" fill="#fff"/>
</g>
<path d="M0.5 1.625H178.5V-0.375H0.5V1.625Z" fill="#7D808D" mask="url(#path-1-inside-1_7209_84221)"/>
<defs>
<clipPath id="clip0_7209_84221">
<path d="M0.5 0.625H178.5V56.625H0.5V0.625Z" fill="#fff"/>
</clipPath>
</defs>
</svg>

<svg width="179" height="57" fill="none" xmlns="http://www.w3.org/2000/svg"><g clip-path="url(#prefix__clip0_7209_84221)" fill="#fff"><path d="M31.493 37.625h-1.826V23.542h-4.974V21.92h11.774v1.622h-4.974v14.083zm9.113 0h-1.784V25.852h1.783v11.773zm-1.934-14.964c0-.408.1-.705.3-.892.201-.193.452-.29.753-.29.286 0 .533.097.74.29.208.194.312.491.312.892s-.104.702-.311.902a1.05 1.05 0 01-.741.29c-.301 0-.552-.096-.752-.29-.2-.2-.301-.5-.301-.902zm9.768 13.707c.315 0 .619-.021.913-.064.293-.05.526-.1.698-.15v1.364c-.194.093-.48.168-.86.225a5.979 5.979 0 01-1.01.097c-2.277 0-3.415-1.2-3.415-3.599v-7.004h-1.687v-.86l1.687-.74.752-2.514h1.03v2.729h3.417v1.385h-3.416v6.929c0 .709.168 1.253.505 1.633.336.38.798.57 1.386.57zm6.007 1.257h-1.783V20.91h1.783v16.715zm9.005.215c-1.74 0-3.115-.53-4.125-1.59-1.002-1.06-1.504-2.532-1.504-4.415 0-1.898.466-3.405 1.397-4.523.938-1.117 2.195-1.675 3.77-1.675 1.476 0 2.643.487 3.502 1.46.86.967 1.29 2.246 1.29 3.836v1.127H59.67c.036 1.383.383 2.432 1.042 3.148.666.716 1.6 1.074 2.804 1.074 1.267 0 2.52-.265 3.76-.795v1.59a9.113 9.113 0 01-1.795.58c-.558.122-1.235.183-2.03.183zm-.483-10.71c-.946 0-1.701.308-2.267.924-.558.616-.888 1.468-.988 2.556h6.155c0-1.124-.25-1.983-.752-2.578-.501-.601-1.217-.902-2.148-.902zM136.626 31.927l2.461 2.539 7.056-6.79 6.842 7.007 2.539-2.461-9.303-9.546-9.595 9.251z"/></g><path d="M.5 1.625h178v-2H.5v2z" fill="#7D808D" mask="url(#prefix__path-1-inside-1_7209_84221)"/><defs><clipPath id="prefix__clip0_7209_84221"><path d="M.5.625h178v56H.5v-56z" fill="#fff"/></clipPath></defs></svg>
